src/assets/images/signin-bg.svg

<svg fill="none" height="900" viewBox="0 0 1440 900" width="1440" xmlns="http://www.w3.org/2000/svg" xmlns:xlink="http://www.w3.org/1999/xlink"><linearGradient id="a" gradientUnits="userSpaceOnUse" x1="1688.5" x2="-437.5" y1="-263.5" y2="1399"><stop offset="0" stop-color="#45b0d1"/><stop offset=".232525" stop-color="#1760ce"/><stop offset=".608813" stop-color="#5055da"/><stop offset="1" stop-color="#864da9"/></linearGradient><linearGradient id="b" gradientUnits="userSpaceOnUse" x1="526.132" x2="882.91" y1="79.1813" y2="665.013"><stop offset="0"/><stop offset=".2295" stop-color="#050505"/><stop offset=".4926" stop-color="#131313"/><stop offset=".7711" stop-color="#292929"/><stop offset="1" stop-color="#424242"/></linearGradient><linearGradient id="c"><stop offset="0"/><stop offset=".1942" stop-color="#050505"/><stop offset=".4169" stop-color="#131313"/><stop offset=".6536" stop-color="#2a2a2a"/><stop offset=".8985" stop-color="#494949"/><stop offset="1" stop-color="#595959"/></linearGradient><linearGradient id="d" gradientUnits="userSpaceOnUse" x1="222.819" x2="1389.32" xlink:href="#c" y1="1071.31" y2="106.719"/><linearGradient id="e" gradientUnits="userSpaceOnUse" x1="962.861" x2="236.413" xlink:href="#c" y1="438.379" y2="1039.08"/><linearGradient id="f" gradientUnits="userSpaceOnUse" x1="1265.53" x2="766.485" xlink:href="#c" y1="380.976" y2="793.641"/><linearGradient id="g"><stop offset="0" stop-color="#918d60"/><stop offset=".3772" stop-color="#555338"/><stop offset=".799" stop-color="#181710"/><stop offset="1"/></linearGradient><linearGradient id="h" gradientUnits="userSpaceOnUse" x1="944.914" x2="1321.33" xlink:href="#g" y1="162.496" y2="162.496"/><linearGradient id="i" gradientUnits="userSpaceOnUse" x1="477.224" x2="1132.61" xlink:href="#g" y1="664.584" y2="664.584"/><linearGradient id="j" gradientUnits="userSpaceOnUse" x1="328.001" x2="19.9997" xlink:href="#g" y1="870.499" y2="870.499"/><linearGradient id="k" gradientUnits="userSpaceOnUse" x1="1160.02" x2="1258.12" xlink:href="#g" y1="188.482" y2="188.482"/><linearGradient id="l" gradientUnits="userSpaceOnUse" x1="139.794" x2="219.552" xlink:href="#g" y1="806.196" y2="806.196"/><clipPath id="m"><path d="m0 0h1440v900h-1440z"/></clipPath><mask id="n" height="900" maskUnits="userSpaceOnUse" width="1440" x="0" y="0"><path d="m1440 0h-1440v900h1440z" fill="#fff"/></mask><g clip-path="url(#m)"><g mask="url(#n)"><path d="m1440 0h-1440v900h1440z" fill="url(#a)"/><path d="m141.358 246.312c73.754-126.631 179.901-149.9783 308.403-146.8126 109.954 2.7066 228.849 32.0626 330.329-11.2876 101.166-43.2187 171.182-120.8874 280.22-116.4218 146.2 5.9875 209.17 124.8312 200.32 241.497-12.25 161.756-149.28 244.153-285.192 235.419-112.48-7.225-231.569-17.419-332.034 57.543-92.535 69.041-155.455 211.378-283.428 224.369-252.492 25.631-355.03356-250.097-218.618-484.306z" fill="url(#b)"/><path d="m1198.87 152.182c-57.2-58.0968-150.81-58.0968-208.013 0l-856.732 870.118c-57.2031 58.1-57.2031 153.17 0 211.26 57.203 58.1 150.809 58.1 208.012 0l856.733-870.115c57.21-58.097 57.21-153.166 0-211.263z" fill="url(#d)"/><path d="m355.017 1010.77c35.625 36.18 93.917 36.18 129.541 0l533.542-541.873c35.62-36.181 35.62-95.385 0-131.566-35.628-36.181-93.92-36.181-129.548 0l-533.535 541.872c-35.622 36.181-35.622 95.384 0 131.567z" fill="url(#e)"/><path d="m847.966 774.192c24.474 24.853 64.52 24.853 88.991 0l366.523-372.251c24.47-24.856 24.47-65.528 0-90.381-24.47-24.856-64.52-24.856-88.99 0l-366.524 372.25c-24.47 24.853-24.47 65.525 0 90.382z" fill="url(#f)"/><path d="m946.453 353.643c-.39 0-.784-.153-1.089-.456-.6-.61-.6-1.6 0-2.21l373.336-379.1684c.6-.6094 1.57-.6094 2.17 0s.6 1.6 0 2.2094l-373.331 379.166c-.298.306-.689.459-1.086.459z" fill="url(#h)"/><path d="m478.762 997.396c-.394 0-.788-.156-1.089-.456-.6-.609-.6-1.6 0-2.21l652.307-662.5c.6-.609 1.58-.609 2.18 0 .6.61.6 1.6 0 2.21l-652.312 662.5c-.298.3-.692.456-1.086.456z" fill="url(#i)"/><path d="m21.1247 1027c-.2878 0-.5756-.11-.7959-.33-.4384-.45-.4384-1.17 0-1.62l305.7532-310.716c.438-.445 1.151-.445 1.589 0 .439.446.439 1.17 0 1.615l-305.7527 310.721c-.2181.22-.5059.33-.7936.33z" fill="url(#j)"/><path d="m1161.56 238.297c-.04 0-.09 0-.14-.007-.84-.078-1.47-.84-1.39-1.697l2.65-29.5c.07-.75.66-1.346 1.39-1.415l27.76-2.563 2.53-28.2c.07-.75.65-1.347 1.39-1.415l27.75-2.553 2.53-28.197c.06-.75.65-1.347 1.39-1.416l29.03-2.669c.84-.068 1.59.557 1.67 1.416.07.859-.55 1.619-1.4 1.697l-27.74 2.55-2.53 28.197c-.07.75-.66 1.347-1.4 1.415l-27.74 2.553-2.54 28.2c-.06.75-.65 1.347-1.39 1.416l-27.75 2.563-2.54 28.203c-.07.815-.74 1.422-1.53 1.422z" fill="url(#k)"/><path d="m141.335 846.698c-.046 0-.093 0-.142-.007-.846-.078-1.471-.84-1.394-1.7l2.142-23.803c.068-.75.652-1.346 1.394-1.415l22.151-2.044 2.021-22.506c.068-.75.652-1.347 1.394-1.413l22.141-2.034 2.019-22.503c.068-.75.652-1.347 1.394-1.413l23.418-2.156c.846-.066 1.594.559 1.671 1.416.077.859-.548 1.621-1.394 1.696l-22.141 2.038-2.019 22.503c-.068.75-.652 1.347-1.394 1.416l-22.141 2.031-2.022 22.509c-.067.75-.652 1.344-1.394 1.413l-22.15 2.044-2.025 22.506c-.074.812-.742 1.422-1.529 1.422z" fill="url(#l)"/></g></g></svg>

<svg width="1440" height="900" viewBox="0 0 1440 900" fill="none" xmlns="http://www.w3.org/2000/svg">
<g clip-path="url(#clip0_1868_497)">
<mask id="mask0_1868_497" style="mask-type:luminance" maskUnits="userSpaceOnUse" x="0" y="0" width="1440" height="900">
<path d="M1440 0H0V900H1440V0Z" fill="white"/>
</mask>
<g mask="url(#mask0_1868_497)">
<path d="M1440 0H0V900H1440V0Z" fill="url(#paint0_linear_1868_497)"/>
<g style="mix-blend-mode:color-dodge">
<path d="M141.358 246.312C215.112 119.681 321.259 96.3337 449.761 99.4994C559.715 102.206 678.61 131.562 780.09 88.2118C881.256 44.9931 951.272 -32.6756 1060.31 -28.21C1206.51 -22.2225 1269.48 96.6212 1260.63 213.287C1248.38 375.043 1111.35 457.44 975.438 448.706C862.958 441.481 743.869 431.287 643.404 506.249C550.869 575.29 487.949 717.627 359.976 730.618C107.484 756.249 4.94244 480.521 141.358 246.312Z" fill="url(#paint1_linear_1868_497)"/>
</g>
<g style="mix-blend-mode:color-dodge">
<path d="M1198.87 152.182C1141.67 94.0852 1048.06 94.0852 990.857 152.182L134.125 1022.3C76.9219 1080.4 76.9219 1175.47 134.125 1233.56C191.328 1291.66 284.934 1291.66 342.137 1233.56L1198.87 363.445C1256.08 305.348 1256.08 210.279 1198.87 152.182Z" fill="url(#paint2_linear_1868_497)"/>
</g>
<g style="mix-blend-mode:color-dodge">
<path d="M355.017 1010.77C390.642 1046.95 448.934 1046.95 484.558 1010.77L1018.1 468.897C1053.72 432.716 1053.72 373.512 1018.1 337.331C982.472 301.15 924.18 301.15 888.552 337.331L355.017 879.203C319.395 915.384 319.395 974.587 355.017 1010.77Z" fill="url(#paint3_linear_1868_497)"/>
</g>
<g style="mix-blend-mode:color-dodge">
<path d="M847.966 774.192C872.44 799.045 912.486 799.045 936.957 774.192L1303.48 401.941C1327.95 377.085 1327.95 336.413 1303.48 311.56C1279.01 286.704 1238.96 286.704 1214.49 311.56L847.966 683.81C823.496 708.663 823.496 749.335 847.966 774.192Z" fill="url(#paint4_linear_1868_497)"/>
</g>
<g style="mix-blend-mode:screen">
<path d="M946.453 353.643C946.063 353.643 945.669 353.49 945.364 353.187C944.764 352.577 944.764 351.587 945.364 350.977L1318.7 -28.1914C1319.3 -28.8008 1320.27 -28.8008 1320.87 -28.1914C1321.47 -27.582 1321.47 -26.5914 1320.87 -25.982L947.539 353.184C947.241 353.49 946.85 353.643 946.453 353.643Z" fill="url(#paint5_linear_1868_497)"/>
</g>
<g style="mix-blend-mode:screen">
<path d="M478.762 997.396C478.368 997.396 477.974 997.24 477.673 996.94C477.073 996.331 477.073 995.34 477.673 994.73L1129.98 332.23C1130.58 331.621 1131.56 331.621 1132.16 332.23C1132.76 332.84 1132.76 333.83 1132.16 334.44L479.848 996.94C479.55 997.24 479.156 997.396 478.762 997.396Z" fill="url(#paint6_linear_1868_497)"/>
</g>
<g style="mix-blend-mode:screen">
<path d="M21.1247 1027C20.8369 1027 20.5491 1026.89 20.3288 1026.67C19.8904 1026.22 19.8904 1025.5 20.3288 1025.05L326.082 714.334C326.52 713.889 327.233 713.889 327.671 714.334C328.11 714.78 328.11 715.504 327.671 715.949L21.9183 1026.67C21.7002 1026.89 21.4124 1027 21.1247 1027Z" fill="url(#paint7_linear_1868_497)"/>
</g>
<g style="mix-blend-mode:screen">
<path d="M1161.56 238.297C1161.52 238.297 1161.47 238.297 1161.42 238.29C1160.58 238.212 1159.95 237.45 1160.03 236.593L1162.68 207.093C1162.75 206.343 1163.34 205.747 1164.07 205.678L1191.83 203.115L1194.36 174.915C1194.43 174.165 1195.01 173.568 1195.75 173.5L1223.5 170.947L1226.03 142.75C1226.09 142 1226.68 141.403 1227.42 141.334L1256.45 138.665C1257.29 138.597 1258.04 139.222 1258.12 140.081C1258.19 140.94 1257.57 141.7 1256.72 141.778L1228.98 144.328L1226.45 172.525C1226.38 173.275 1225.79 173.872 1225.05 173.94L1197.31 176.493L1194.77 204.693C1194.71 205.443 1194.12 206.04 1193.38 206.109L1165.63 208.672L1163.09 236.875C1163.02 237.69 1162.35 238.297 1161.56 238.297Z" fill="url(#paint8_linear_1868_497)"/>
</g>
<g style="mix-blend-mode:screen">
<path d="M141.335 846.698C141.289 846.698 141.242 846.698 141.193 846.691C140.347 846.613 139.722 845.851 139.799 844.991L141.941 821.188C142.009 820.438 142.593 819.842 143.335 819.773L165.486 817.729L167.507 795.223C167.575 794.473 168.159 793.876 168.901 793.81L191.042 791.776L193.061 769.273C193.129 768.523 193.713 767.926 194.455 767.86L217.873 765.704C218.719 765.638 219.467 766.263 219.544 767.12C219.621 767.979 218.996 768.741 218.15 768.816L196.009 770.854L193.99 793.357C193.922 794.107 193.338 794.704 192.596 794.773L170.455 796.804L168.433 819.313C168.366 820.063 167.781 820.657 167.039 820.726L144.889 822.77L142.864 845.276C142.79 846.088 142.122 846.698 141.335 846.698Z" fill="url(#paint9_linear_1868_497)"/>
</g>
</g>
</g>
<defs>
<linearGradient id="paint0_linear_1868_497" x1="1688.5" y1="-263.5" x2="-437.5" y2="1399" gradientUnits="userSpaceOnUse">
<stop stop-color="#45B0D1"/>
<stop offset="0.232525" stop-color="#1760CE"/>
<stop offset="0.608813" stop-color="#5055DA"/>
<stop offset="1" stop-color="#864DA9"/>
</linearGradient>
<linearGradient id="paint1_linear_1868_497" x1="526.132" y1="79.1813" x2="882.91" y2="665.013" gradientUnits="userSpaceOnUse">
<stop/>
<stop offset="0.2295" stop-color="#050505"/>
<stop offset="0.4926" stop-color="#131313"/>
<stop offset="0.7711" stop-color="#292929"/>
<stop offset="1" stop-color="#424242"/>
</linearGradient>
<linearGradient id="paint2_linear_1868_497" x1="222.819" y1="1071.31" x2="1389.32" y2="106.719" gradientUnits="userSpaceOnUse">
<stop/>
<stop offset="0.1942" stop-color="#050505"/>
<stop offset="0.4169" stop-color="#131313"/>
<stop offset="0.6536" stop-color="#2A2A2A"/>
<stop offset="0.8985" stop-color="#494949"/>
<stop offset="1" stop-color="#595959"/>
</linearGradient>
<linearGradient id="paint3_linear_1868_497" x1="962.861" y1="438.379" x2="236.413" y2="1039.08" gradientUnits="userSpaceOnUse">
<stop/>
<stop offset="0.1942" stop-color="#050505"/>
<stop offset="0.4169" stop-color="#131313"/>
<stop offset="0.6536" stop-color="#2A2A2A"/>
<stop offset="0.8985" stop-color="#494949"/>
<stop offset="1" stop-color="#595959"/>
</linearGradient>
<linearGradient id="paint4_linear_1868_497" x1="1265.53" y1="380.976" x2="766.485" y2="793.641" gradientUnits="userSpaceOnUse">
<stop/>
<stop offset="0.1942" stop-color="#050505"/>
<stop offset="0.4169" stop-color="#131313"/>
<stop offset="0.6536" stop-color="#2A2A2A"/>
<stop offset="0.8985" stop-color="#494949"/>
<stop offset="1" stop-color="#595959"/>
</linearGradient>
<linearGradient id="paint5_linear_1868_497" x1="944.914" y1="162.496" x2="1321.33" y2="162.496" gradientUnits="userSpaceOnUse">
<stop stop-color="#918D60"/>
<stop offset="0.3772" stop-color="#555338"/>
<stop offset="0.799" stop-color="#181710"/>
<stop offset="1"/>
</linearGradient>
<linearGradient id="paint6_linear_1868_497" x1="477.224" y1="664.584" x2="1132.61" y2="664.584" gradientUnits="userSpaceOnUse">
<stop stop-color="#918D60"/>
<stop offset="0.3772" stop-color="#555338"/>
<stop offset="0.799" stop-color="#181710"/>
<stop offset="1"/>
</linearGradient>
<linearGradient id="paint7_linear_1868_497" x1="328.001" y1="870.499" x2="19.9997" y2="870.499" gradientUnits="userSpaceOnUse">
<stop stop-color="#918D60"/>
<stop offset="0.3772" stop-color="#555338"/>
<stop offset="0.799" stop-color="#181710"/>
<stop offset="1"/>
</linearGradient>
<linearGradient id="paint8_linear_1868_497" x1="1160.02" y1="188.482" x2="1258.12" y2="188.482" gradientUnits="userSpaceOnUse">
<stop stop-color="#918D60"/>
<stop offset="0.3772" stop-color="#555338"/>
<stop offset="0.799" stop-color="#181710"/>
<stop offset="1"/>
</linearGradient>
<linearGradient id="paint9_linear_1868_497" x1="139.794" y1="806.196" x2="219.552" y2="806.196" gradientUnits="userSpaceOnUse">
<stop stop-color="#918D60"/>
<stop offset="0.3772" stop-color="#555338"/>
<stop offset="0.799" stop-color="#181710"/>
<stop offset="1"/>
</linearGradient>
<clipPath id="clip0_1868_497">
<rect width="1440" height="900" fill="white"/>
</clipPath>
</defs>
</svg>
